Greg8978/pr2_gestures/src/data/others stuff/useful scripts/BML_files/output/jaipastrouve.txt
r_shoulder_pan_joint -1.364737 -1.364737 -1.364737
l_shoulder_pan_joint 1.448431 1.450255 1.450752
r_shoulder_lift_joint 0.598451 0.667988 0.682285
l_shoulder_lift_joint 0.574661 0.597586 0.607738
r_upper_arm_roll_joint -2.788267 -2.769666 -2.742566
l_upper_arm_roll_joint 2.980237 2.980237 2.980558
r_elbow_flex_joint -2.1268 -2.126076 -2.125931
l_elbow_flex_joint -2.126655 -2.124339 -2.124339
r_forearm_roll_joint -3.011118 -3.010944 -3.010771
l_forearm_roll_joint -3.054861 -3.054861 -3.054861
r_wrist_flex_joint -1.807828 -1.673342 -1.671863
l_wrist_flex_joint -1.678144 -1.503673 -1.502107
r_wrist_roll_joint -0.138925 -0.141405 -0.141057
l_wrist_roll_joint 0.342333 0.426914 0.427175
head_pan_joint -0.004295 0.440554 -0.446213
head_tilt_joint 0.424639 0.474276 0.47658
speed 1.0 1.0 1.0
