Greg8978/pr2_gestures/src/data/others stuff/useful scripts/BML_files/output/merci.txt
r_shoulder_pan_joint -0.953769 -0.952194 -0.952194
l_shoulder_pan_joint 0.60154 1.166963 1.166963
r_shoulder_lift_joint 0.849867 0.836332 0.836332
l_shoulder_lift_joint 0.281117 0.414692 0.414692
r_upper_arm_roll_joint -1.689676 -1.739706 -1.739706
l_upper_arm_roll_joint 1.602629 1.391602 1.391602
r_elbow_flex_joint -1.990426 -1.986806 -1.986806
l_elbow_flex_joint -2.120575 -1.57392 -1.57392
r_forearm_roll_joint -0.532833 -0.543939 -0.543939
l_forearm_roll_joint 0.150859 -0.437157 -0.437157
r_wrist_flex_joint -0.549115 -0.549159 -0.549159
l_wrist_flex_joint -0.097117 -0.080932 -0.080932
r_wrist_roll_joint -0.168424 -0.167946 -0.167946
l_wrist_roll_joint -0.58754 -0.589977 -0.589977
head_pan_joint -0.26798 -0.475953 -0.475953
head_tilt_joint -0.000838 0.004922 0.004922
speed 1.0 2.0 4.0
