Greg8978/pr2_gestures/src/data/behaviors/attends.txt
r_shoulder_pan_joint -0.02364 -0.02364 -0.02364
l_shoulder_pan_joint 0.099457 0.099457 0.099457
r_shoulder_lift_joint 0.790059 0.790059 0.790059
l_shoulder_lift_joint 0.462488 0.462488 0.462488
r_upper_arm_roll_joint -0.165182 -0.165182 -0.165182
l_upper_arm_roll_joint 0.257252 0.257252 0.257252
r_elbow_flex_joint -2.121443 -2.5 -2.5
l_elbow_flex_joint -1.461868 -1 -1
r_forearm_roll_joint 0.01012 0.01012 0.01012
l_forearm_roll_joint -0.16568 -0.16568 -0.16568
r_wrist_flex_joint -0.222146 -0.222146 -0.222146
l_wrist_flex_joint -0.567753 -0.567753 -0.567753
r_wrist_roll_joint -0.172297 -0.172297 -0.172297
l_wrist_roll_joint 0.01632 0.01632 0.01632
head_pan_joint -0.000316 -0.000316 -0.000316
head_tilt_joint 0.000838 0.000838 0.000838
speed 1.0 1.0 4.0
